X: 30811
T: Otter's Holt, The
R: reel
M: 4/4
K: Eminor
|:GA|BEED B,A,B,E|D2B,E DEGA|BEED B,A,B,D|EGFD E2GA|
BEED B,A,B,E|D2B,E DEGA|BddB ABBA|GEED E2:|
|:BA|G2BG DGBd|eBdB AcBA|G2BG DGBd|eBdB A2BA|
G2BG DGBd|eBdB A2GA|BEED B,A,B,D|EGFD E2:|

